X: 61
T: Praeludia organi op. 5 – Allegro
C: Franciszek Walczyński
%%abc-version 2.0
%%abcx-abcm2ps-target-version 5.9.1 (29 Sep 2008)
%%abc-creator hum2abc beta
%%abcx-conversion-date 2021/10/04 07:38:40
%%abc-edited-by Andrzej Borzym
%%abc-edited-by Krzysztof Stępień
%%abcx-initial-encoding-date 2021-07-26
%%humdrum-veritas 284451898
%%humdrum-veritas-data 1825708545
%%linebreak <none>
%%barnumbers 0
L: 1/4
M: 3/4
N: Derived from pl-kozmzk--mzk-m-159--050_walczynski-franciszek--praeludia-organi-op-5-allegro.krn
Q: "50. Allegro."
%%staves {1 2}
V: 1 clef=treble
V: 2 clef=bass
K: Db
[V:1] z3 & z3 | 
[V:2] z3 & F,,F,E, | 
[V:1] z3 & z3 | 
[V:2] z3 & D,/E,/C,/D,/B,, | 
[V:1] z3 & z3 | 
[V:2] F,FE & =A,,3 | 
[V:1] z3 & z3 | 
[V:2] D/E/C/D/B, & B,,C,D, | 
[V:1] z3 & B,BA | 
[V:2] B,3- & =D,3 | 
[V:1] z3 & G/A/F/G/E | 
[V:2] B,3 & E,F,G, | 
[V:1] Ffe & F3- | 
[V:2] =A,B,C & F,=G,A, | 
[V:1] d/e/c/d/B & F3 | 
[V:2] DED & B,3 | 
[V:1] cB=A & GF3/E/ | 
[V:2] EDC & E,F,2 | 
[V:1] B3 & DCD | 
[V:2] B,3 & G,3 | 
[V:1] B_AF & F3 | 
[V:2] B,3- & =D,3 | 
[V:1] AGE & E3 | 
[V:2] B,3- & E,3 | 
[V:1] F3- & _D2C | 
[V:2] B,2=A, & F,2F,, | 
[V:1] !fermata!F3 & D3 |]  
[V:2] B,3 & !fermata!B,,3 |]  


